!!!COM: Schubert, Franz
!!!CDT: 1797/01/31/-1828/11/19/
!!!CNT: Austrian
!!!OTL@@DE: Variationen &uuml;ber ein Thema von Anselm H&uuml;ttenbrenner
!!!OTL@EN: 13 Variations on a Theme by Anselm H&uuml;ttenbrenner
!!!OKY: A Minor
!!!SCT: D 576
!!!PDT: 1867///
!!!ODT: 1817/08//
!!!YEC: Copyright 2001 by Craig Stuart Sapp
!!!YEN: United States of America
!!!OMD: Var. 8
**kern	**kern	**kern
*clefF4	*clefG2	*clefG2
*k[]	*k[]	*k[]
*a:	*a:	*a:
*M2/4	*M2/4	*M2/4
*MM72	*MM72	*MM72
*>[A,A1,A,A2,B,B1,B,B2]	*>[A,A1,A,A2,B,B1,B,B2]	*>[A,A1,A,A2,B,B1,B,B2]
*>A	*>A	*>A
4A	16r	4ee
.	16e	.
.	16a	.
.	16cc	.
8B	16dd	8ee
.	16g#	.
8A	16a	8ee
.	16cc	.
=134	=134	=134
4G#	16b	4ee
.	16e	.
.	16f	.
.	16e	.
8F#	16d#	8ee
.	16e	.
8G#	16dn	8ee
.	16e	.
=135	=135	=135
4A	16c	4ee
.	16e	.
.	16cc	.
.	16b	.
4Fn	16a	4ff
.	16b	.
.	16cc	.
.	16dd	.
=136	=136	=136
2G	16b	2dd
.	16cc	.
.	16b	.
.	16a	.
.	16g	.
.	16a	.
.	16g	.
.	16f#	.
=137	=137	=137
4G	16fn	4gg
.	16ff	.
.	16ee	.
.	16dd	.
8A	16cc	8gg
.	16b	.
8B	16dd	8gg
.	16f	.
=138	=138	=138
4c	16e	4gg
.	16gg	.
.	16ff	.
.	16ee	.
4A	16dd	4aa
.	16cc	.
.	16b	.
.	16a	.
=139	=139	=139
2E	16b	4aa
.	16ff	.
.	16ee	.
.	16dd#	.
.	16ee	4gg#
.	16ddn	.
.	16cc	.
.	16b	.
=140	=140	=140
2A	16a'	2aa
.	16a	.
.	16b-	.
.	16bn	.
.	16cc	.
.	16cc#	.
.	16dd	.
.	16dd#	.
=141:|!	=141:|	=141:|!
*>A1	*>A1	*>A1
2A	16a'	2aa
.	16ee	.
.	16dd	.
.	16cc	.
.	16b	.
.	16a	.
.	16g#	.
.	16a	.
=142||	=142||	=142||
*>A2	*>A2	*>A2
4A	16cc#	4aa
.	16gg	.
.	16ff	.
.	16ee	.
8B	16dd	4aa
.	16cc#	.
8c#	16ee	.
.	16g	.
=143	=143	=143
*>B	*>B	*>B
4d	16f	4aa
.	16ff	.
.	16ff	.
.	16ee	.
8d	16ee	8aa
.	16ff	.
8cn	16ff	8aa#
.	16ee	.
=144	=144	=144
4B	16dd#	4bb
.	16aan	.
.	16gg	.
.	16ff#	.
8c#	16ee	8bb
.	16dd#	.
8d#	16ff#	8bb
.	16a	.
=145	=145	=145
4e	16g#	4bb
.	16gg#	.
.	16gg#	.
.	16g#	.
8e	16gn	8bb
.	16ggn	.
8dn	16gg	8bb
.	16ffn	.
=146	=146	=146
4c	16ee	4ccc
.	16cc	.
.	16ee	.
.	16ff	.
8A	16gg	8ccc#
.	16aa	.
8Gn	16aa	8ccc#
.	16bb-	.
=147	=147	=147
4F#	16aa	4ddd
.	16dd	.
.	16ff#	.
.	16gg#	.
8F#	16aa	8ddd#
.	16bb	.
8Fn	16bb	8ddd#
.	16cccn	.
=148	=148	=148
4E	16ccc	4eee
.	16aa	.
.	16ee	.
.	16ccc	.
4E	16bb	4eee
.	16gg#	.
.	16ee	.
.	16dd	.
=149	=149	=149
*>B1	*>B1	*>B1
4AA	16cc	4eee
.	16ee	.
.	16dd	.
.	16cc	.
4r	16b	4r
.	16a	.
.	16g#	.
.	16a	.
=150:|!	=150:|!	=150:|!
*>B2	*>B2	*>B2
2AA	2cc#	2eee
=|!	=|!	=|!
*-	*-	*-
